src/assets/outline/Setting3.svg

<svg width="24" height="24" viewBox="0 0 24 24"  xmlns="http://www.w3.org/2000/svg">
<path d="M15 22.75H9C3.57 22.75 1.25 20.43 1.25 15V9C1.25 3.57 3.57 1.25 9 1.25H15C20.43 1.25 22.75 3.57 22.75 9V15C22.75 20.43 20.43 22.75 15 22.75ZM9 2.75C4.39 2.75 2.75 4.39 2.75 9V15C2.75 19.61 4.39 21.25 9 21.25H15C19.61 21.25 21.25 19.61 21.25 15V9C21.25 4.39 19.61 2.75 15 2.75H9Z" />
<path d="M15.5801 19.2496C15.1701 19.2496 14.8301 18.9096 14.8301 18.4996V14.5996C14.8301 14.1896 15.1701 13.8496 15.5801 13.8496C15.9901 13.8496 16.3301 14.1896 16.3301 14.5996V18.4996C16.3301 18.9096 15.9901 19.2496 15.5801 19.2496Z" />
<path d="M15.5801 8.2C15.1701 8.2 14.8301 7.86 14.8301 7.45V5.5C14.8301 5.09 15.1701 4.75 15.5801 4.75C15.9901 4.75 16.3301 5.09 16.3301 5.5V7.45C16.3301 7.86 15.9901 8.2 15.5801 8.2Z" />
<path d="M15.58 13.4002C13.73 13.4002 12.23 11.9002 12.23 10.0502C12.23 8.2002 13.73 6.7002 15.58 6.7002C17.43 6.7002 18.93 8.2002 18.93 10.0502C18.93 11.9002 17.42 13.4002 15.58 13.4002ZM15.58 8.2002C14.56 8.2002 13.73 9.0302 13.73 10.0502C13.73 11.0702 14.56 11.9002 15.58 11.9002C16.6 11.9002 17.43 11.0702 17.43 10.0502C17.43 9.0302 16.59 8.2002 15.58 8.2002Z" />
<path d="M8.41992 19.2498C8.00992 19.2498 7.66992 18.9098 7.66992 18.4998V16.5498C7.66992 16.1398 8.00992 15.7998 8.41992 15.7998C8.82992 15.7998 9.16992 16.1398 9.16992 16.5498V18.4998C9.16992 18.9098 8.83992 19.2498 8.41992 19.2498Z" />
<path d="M8.41992 10.15C8.00992 10.15 7.66992 9.81 7.66992 9.4V5.5C7.66992 5.09 8.00992 4.75 8.41992 4.75C8.82992 4.75 9.16992 5.09 9.16992 5.5V9.4C9.16992 9.81 8.83992 10.15 8.41992 10.15Z" />
<path d="M8.41982 17.2996C6.56982 17.2996 5.06982 15.7996 5.06982 13.9496C5.06982 12.0996 6.56982 10.5996 8.41982 10.5996C10.2698 10.5996 11.7698 12.0996 11.7698 13.9496C11.7698 15.7996 10.2698 17.2996 8.41982 17.2996ZM8.41982 12.0996C7.39982 12.0996 6.56982 12.9296 6.56982 13.9496C6.56982 14.9696 7.39982 15.7996 8.41982 15.7996C9.43982 15.7996 10.2698 14.9696 10.2698 13.9496C10.2698 12.9296 9.44982 12.0996 8.41982 12.0996Z" />
</svg>

<?xml version="1.0" encoding="UTF-8"?>
<svg width="24" height="24" viewBox="0 0 24 24" xmlns="http://www.w3.org/2000/svg">
 <path d="m15 22.75h-6c-5.43 0-7.75-2.32-7.75-7.75v-6c0-5.43 2.32-7.75 7.75-7.75h6c5.43 0 7.75 2.32 7.75 7.75v6c0 5.43-2.32 7.75-7.75 7.75zm-6-20c-4.61 0-6.25 1.64-6.25 6.25v6c0 4.61 1.64 6.25 6.25 6.25h6c4.61 0 6.25-1.64 6.25-6.25v-6c0-4.61-1.64-6.25-6.25-6.25h-6z"/>
 <path d="m15.58 19.25c-0.41 0-0.75-0.34-0.75-0.75v-3.9c0-0.41 0.34-0.75 0.75-0.75s0.75 0.34 0.75 0.75v3.9c0 0.41-0.34 0.75-0.75 0.75z"/>
 <path d="m15.58 8.2c-0.41 0-0.75-0.34-0.75-0.75v-1.95c0-0.41 0.34-0.75 0.75-0.75s0.75 0.34 0.75 0.75v1.95c0 0.41-0.34 0.75-0.75 0.75z"/>
 <path d="m15.58 13.4c-1.85 0-3.35-1.5-3.35-3.35s1.5-3.35 3.35-3.35 3.35 1.5 3.35 3.35-1.51 3.35-3.35 3.35zm0-5.2c-1.02 0-1.85 0.83-1.85 1.85s0.83 1.85 1.85 1.85 1.85-0.83 1.85-1.85-0.84-1.85-1.85-1.85z"/>
 <path d="m8.4199 19.25c-0.41 0-0.75-0.34-0.75-0.75v-1.95c0-0.41 0.34-0.75 0.75-0.75s0.75 0.34 0.75 0.75v1.95c0 0.41-0.33 0.75-0.75 0.75z"/>
 <path d="m8.4199 10.15c-0.41 0-0.75-0.34-0.75-0.75v-3.9c0-0.41 0.34-0.75 0.75-0.75s0.75 0.34 0.75 0.75v3.9c0 0.41-0.33 0.75-0.75 0.75z"/>
 <path d="m8.4198 17.3c-1.85 0-3.35-1.5-3.35-3.35s1.5-3.35 3.35-3.35c1.85 0 3.35 1.5 3.35 3.35s-1.5 3.35-3.35 3.35zm0-5.2c-1.02 0-1.85 0.83-1.85 1.85s0.83 1.85 1.85 1.85 1.85-0.83 1.85-1.85-0.81998-1.85-1.85-1.85z"/>
</svg>
